public/footer.svg

<svg height="300" viewBox="0 0 1440 300" width="1440" xmlns="http://www.w3.org/2000/svg"><path d="m0 136 160 23 160-8 160-69 160-8 160 96 160-62 160-34 160-7 160 103v131h-160-160-160-160-160-160-160-160-160z" fill="#ff007e"/><path d="m0 193 160-14 160-75 160 33 160 53 160-33 160 46 160-13 160 10 160-57v158h-160-160-160-160-160-160-160-160-160z" fill="#bc2a88"/><path d="m0 235 160-36 160 13 160-40 160 23 160 1 160 6 160 27 160-55 160 21v106h-160-160-160-160-160-160-160-160-160z" fill="#79357d"/><path d="m0 235 160-37 160 56 160-57 160 3 160-9 160 20 160 45 160-70 160 56v59h-160-160-160-160-160-160-160-160-160z" fill="#40305f"/><path d="m0 261 160-33 160 16 160-21 160 12 160 20 160-33 160 56 160-42 160 3v62h-160-160-160-160-160-160-160-160-160z" fill="#1e2235"/></svg>

<svg id="visual" viewBox="0 0 1440 300" width="1440" height="300" xmlns="http://www.w3.org/2000/svg" xmlns:xlink="http://www.w3.org/1999/xlink" version="1.1"><path d="M0 136L160 159L320 151L480 82L640 74L800 170L960 108L1120 74L1280 67L1440 170L1440 301L1280 301L1120 301L960 301L800 301L640 301L480 301L320 301L160 301L0 301Z" fill="#ff007e"></path><path d="M0 193L160 179L320 104L480 137L640 190L800 157L960 203L1120 190L1280 200L1440 143L1440 301L1280 301L1120 301L960 301L800 301L640 301L480 301L320 301L160 301L0 301Z" fill="#bc2a88"></path><path d="M0 235L160 199L320 212L480 172L640 195L800 196L960 202L1120 229L1280 174L1440 195L1440 301L1280 301L1120 301L960 301L800 301L640 301L480 301L320 301L160 301L0 301Z" fill="#79357d"></path><path d="M0 235L160 198L320 254L480 197L640 200L800 191L960 211L1120 256L1280 186L1440 242L1440 301L1280 301L1120 301L960 301L800 301L640 301L480 301L320 301L160 301L0 301Z" fill="#40305f"></path><path d="M0 261L160 228L320 244L480 223L640 235L800 255L960 222L1120 278L1280 236L1440 239L1440 301L1280 301L1120 301L960 301L800 301L640 301L480 301L320 301L160 301L0 301Z" fill="#1e2235"></path></svg>
